Flat-Remix-Blue/mimetypes/scalable/application-java.svg

<svg xmlns="http://www.w3.org/2000/svg" xmlns:xlink="http://www.w3.org/1999/xlink" width="36pt" height="36pt" version="1.1" viewBox="0 0 36 36"> <defs> <clipPath id="clip1"> <path d="M 20 2 L 31 2 L 31 13 L 20 13 Z M 20 2"/> </clipPath> <clipPath id="clip2"> <path d="M 20.515625 2.625 L 30.328125 12.4375 L 22.023438 12.4375 C 21.292969 12.4375 20.515625 11.660156 20.515625 10.929688 Z M 20.515625 2.625"/> </clipPath> <image id="image6" width="36" height="36" xlink:href="data:image/png;base64,iVBORw0KGgoAAAANSUhEUgAAACQAAAAkCAYAAADhAJiYAAAABmJLR0QA/wD/AP+gvaeTAAAAmklEQVRYhe3T0QqCQBBG4aOtYEoUvf9Lildltl00C4tkbBeTIP+BAUEYP1YW1Pcqh53B9kbgaVPcwQF0tAmGSrMZ6AKcDQXw+AUVHEAtcAUaewYYgYmC3+cBCkAPnDJQMcoDVNnebgEqQnmAclTz4d0I3P4JStc9AjXvk4qLWQV53LLeEOl05gw4A3dgcPiuUkoppZRSSqk99gLWvSJpuDnlsAAAAABJRU5ErkJggg=="/> </defs> <g> <path style="fill:rgb(89.411%,18.823%,18.823%)" d="M 7.347656 3.152344 C 6.675781 3.152344 6.042969 3.785156 6.042969 4.457031 L 6.042969 31.847656 C 6.042969 32.480469 6.714844 33.152344 7.347656 33.152344 L 28.21875 33.152344 C 28.851562 33.152344 29.523438 32.480469 29.523438 31.847656 L 29.523438 11.632812 L 21.042969 3.152344 Z M 7.347656 3.152344"/> <g clip-path="url(#clip1)"> <g clip-path="url(#clip2)"> <use xlink:href="#image6"/> </g> </g> <path style="fill:rgb(88.235%,36.862%,36.862%)" d="M 21.042969 3.152344 L 29.523438 11.632812 L 22.347656 11.632812 C 21.714844 11.632812 21.042969 10.960938 21.042969 10.328125 Z M 21.042969 3.152344"/> <path style="fill-rule:evenodd;fill:rgb(100.000%,100.000%,100.000%)" d="M 16.375 21.859375 C 16.375 21.859375 15.902344 22.121094 16.710938 22.210938 C 17.691406 22.316406 18.195312 22.300781 19.273438 22.105469 C 19.273438 22.105469 19.558594 22.277344 19.957031 22.421875 C 17.53125 23.40625 14.472656 22.367188 16.375 21.859375"/> <path style="fill-rule:evenodd;fill:rgb(100.000%,100.000%,100.000%)" d="M 16.078125 20.574219 C 16.078125 20.574219 15.546875 20.949219 16.359375 21.027344 C 17.40625 21.128906 18.234375 21.136719 19.664062 20.878906 C 19.664062 20.878906 19.863281 21.066406 20.175781 21.171875 C 17.246094 21.984375 13.980469 21.234375 16.078125 20.574219"/> <path style="fill-rule:evenodd;fill:rgb(100.000%,100.000%,100.000%)" d="M 18.574219 18.394531 C 19.171875 19.046875 18.417969 19.632812 18.417969 19.632812 C 18.417969 19.632812 19.933594 18.890625 19.238281 17.960938 C 18.585938 17.097656 18.089844 16.664062 20.789062 15.179688 C 20.789062 15.179688 16.550781 16.183594 18.574219 18.394531"/> <path style="fill-rule:evenodd;fill:rgb(100.000%,100.000%,100.000%)" d="M 21.78125 22.8125 C 21.78125 22.8125 22.128906 23.085938 21.394531 23.296875 C 19.996094 23.699219 15.574219 23.820312 14.34375 23.3125 C 13.902344 23.128906 14.730469 22.878906 14.992188 22.824219 C 15.261719 22.769531 15.417969 22.777344 15.417969 22.777344 C 14.925781 22.449219 12.242188 23.421875 14.054688 23.703125 C 18.996094 24.460938 23.0625 23.359375 21.78125 22.8125"/> <path style="fill-rule:evenodd;fill:rgb(100.000%,100.000%,100.000%)" d="M 16.601562 19.242188 C 16.601562 19.242188 14.351562 19.75 15.804688 19.933594 C 16.417969 20.011719 17.640625 19.996094 18.78125 19.90625 C 19.710938 19.828125 20.648438 19.671875 20.648438 19.671875 C 20.648438 19.671875 20.320312 19.804688 20.082031 19.957031 C 17.796875 20.527344 13.382812 20.261719 14.652344 19.679688 C 15.730469 19.1875 16.601562 19.242188 16.601562 19.242188"/> <path style="fill-rule:evenodd;fill:rgb(100.000%,100.000%,100.000%)" d="M 20.636719 21.382812 C 22.960938 20.238281 21.886719 19.140625 21.136719 19.289062 C 20.953125 19.324219 20.871094 19.355469 20.871094 19.355469 C 20.871094 19.355469 20.941406 19.253906 21.070312 19.210938 C 22.554688 18.714844 23.691406 20.667969 20.589844 21.441406 C 20.589844 21.441406 20.628906 21.410156 20.636719 21.382812"/> <path style="fill-rule:evenodd;fill:rgb(100.000%,100.000%,100.000%)" d="M 19.238281 12.78125 C 19.238281 12.78125 20.523438 14.003906 18.019531 15.878906 C 16.007812 17.382812 17.558594 18.242188 18.015625 19.222656 C 16.84375 18.21875 15.984375 17.335938 16.5625 16.511719 C 17.410156 15.304688 19.757812 14.722656 19.238281 12.78125"/> <path style="fill-rule:evenodd;fill:rgb(100.000%,100.000%,100.000%)" d="M 16.832031 24.484375 C 19.058594 24.621094 22.484375 24.410156 22.5625 23.410156 C 22.5625 23.410156 22.410156 23.789062 20.722656 24.089844 C 18.820312 24.429688 16.472656 24.390625 15.078125 24.171875 C 15.078125 24.171875 15.363281 24.394531 16.832031 24.484375"/> </g> </svg>

<svg width="36pt" height="36pt" version="1.1" viewBox="0 0 36 36" xmlns="http://www.w3.org/2000/svg"><defs><filter id="a" x="-.192" y="-.192" width="1.384" height="1.384" color-interpolation-filters="sRGB"><feGaussianBlur stdDeviation="0.67843748"/></filter></defs><path d="m7.3477 3.1523c-0.67188 0-1.3047 0.63281-1.3047 1.3047v27.391c0 0.63281 0.67188 1.3047 1.3047 1.3047h20.871c0.63281 0 1.3047-0.67188 1.3047-1.3047v-20.215l-8.4805-8.4805z" fill="#e32f2f"/><path d="m20.668 3.5272 8.4805 8.4805h-7.1758c-0.63281 0-1.3047-0.67187-1.3047-1.3047z" filter="url(#a)" opacity=".2"/><path d="m21.043 3.1523 8.4805 8.4805h-7.1758c-0.63281 0-1.3047-0.67187-1.3047-1.3047z" fill="#e05d5d"/><path d="m16.375 21.859s-0.47266 0.26172 0.33594 0.35156c0.98047 0.10547 1.4844 0.089843 2.5625-0.10547 0 0 0.28516 0.17188 0.68359 0.31641-2.4258 0.98438-5.4844-0.054687-3.582-0.5625" fill="#fff" fill-rule="evenodd"/><path d="m16.078 20.574s-0.53125 0.375 0.28125 0.45312c1.0469 0.10156 1.875 0.10938 3.3047-0.14844 0 0 0.19922 0.1875 0.51172 0.29297-2.9297 0.8125-6.1953 0.0625-4.0977-0.59766" fill="#fff" fill-rule="evenodd"/><path d="m18.574 18.395c0.59766 0.65234-0.15625 1.2383-0.15625 1.2383s1.5156-0.74219 0.82031-1.6719c-0.65234-0.86328-1.1484-1.2969 1.5508-2.7812 0 0-4.2383 1.0039-2.2148 3.2148" fill="#fff" fill-rule="evenodd"/><path d="m21.781 22.812s0.34766 0.27344-0.38672 0.48438c-1.3984 0.40234-5.8203 0.52344-7.0508 0.015625-0.44141-0.18359 0.38672-0.43359 0.64844-0.48828 0.26953-0.054688 0.42578-0.046875 0.42578-0.046875-0.49219-0.32812-3.1758 0.64453-1.3633 0.92578 4.9414 0.75781 9.0078-0.34375 7.7266-0.89062" fill="#fff" fill-rule="evenodd"/><path d="m16.602 19.242s-2.25 0.50781-0.79687 0.69141c0.61328 0.078125 1.8359 0.0625 2.9766-0.027344 0.92969-0.078125 1.8672-0.23438 1.8672-0.23438s-0.32813 0.13281-0.56641 0.28516c-2.2852 0.57031-6.6992 0.30469-5.4297-0.27734 1.0781-0.49219 1.9492-0.4375 1.9492-0.4375" fill="#fff" fill-rule="evenodd"/><path d="m20.637 21.383c2.3242-1.1445 1.25-2.2422 0.5-2.0938-0.18359 0.035157-0.26562 0.066407-0.26562 0.066407s0.070312-0.10156 0.19922-0.14453c1.4844-0.49609 2.6211 1.457-0.48047 2.2305 0 0 0.039062-0.03125 0.046875-0.058594" fill="#fff" fill-rule="evenodd"/><path d="m19.238 12.781s1.2852 1.2227-1.2188 3.0977c-2.0117 1.5039-0.46094 2.3633-0.003906 3.3438-1.1719-1.0039-2.0312-1.8867-1.4531-2.7109 0.84766-1.207 3.1953-1.7891 2.6758-3.7305" fill="#fff" fill-rule="evenodd"/><path d="m16.832 24.484c2.2266 0.13672 5.6523-0.074219 5.7305-1.0742 0 0-0.15234 0.37891-1.8398 0.67969-1.9023 0.33984-4.25 0.30078-5.6445 0.082031 0 0 0.28516 0.22266 1.7539 0.3125" fill="#fff" fill-rule="evenodd"/></svg>
